web/wp-content/themes/cncf-twenty-two/images/projects/krustlet-icon-color.svg

<?xml version="1.0" encoding="UTF-8"?>
<svg width="390px" height="390px" viewBox="0 0 390 390" version="1.1" xmlns="http://www.w3.org/2000/svg" xmlns:xlink="http://www.w3.org/1999/xlink">
    <!-- Generator: Sketch 51.3 (57544) - http://www.bohemiancoding.com/sketch -->
    <title>Icon (color)</title>
    <desc>Created with Sketch.</desc>
    <defs>
        <circle id="path-1" cx="183.731653" cy="183.534154" r="183.421645"></circle>
        <linearGradient x1="50%" y1="0%" x2="50%" y2="100%" id="linearGradient-3">
            <stop stop-color="#BF87ED" offset="0%"></stop>
            <stop stop-color="#8B4FD7" offset="100%"></stop>
        </linearGradient>
        <path d="M23.8032008,47.5909827 C10.6734957,47.5909827 0.0297743823,36.9472614 0.0297743823,23.8175563 C0.0297743823,10.6877626 10.6734957,0.0440412738 23.8032008,0.0440412738 C36.9329059,0.0440412738 47.5767158,10.6877626 47.5767158,23.8175563 C47.5767158,36.9472614 36.9329059,47.5909827 23.8032008,47.5909827 Z" id="path-4"></path>
        <linearGradient x1="48.9895683%" y1="75.6897241%" x2="48.9895683%" y2="36.7518684%" id="linearGradient-6">
            <stop stop-color="#1A59C8" offset="0%"></stop>
            <stop stop-color="#2A69D9" offset="100%"></stop>
        </linearGradient>
        <path d="M16.1610305,32.1276731 C7.28927222,32.1276731 0.0972839772,24.9356849 0.0972839772,16.0637465 C0.0972839772,7.19198824 7.28927222,0 16.1610305,0 C25.0327887,0 32.224777,7.19198824 32.224777,16.0637465 C32.224777,24.9356849 25.0327887,32.1276731 16.1610305,32.1276731 Z" id="path-7"></path>
        <path d="M30.2881066,60.4603272 C13.6254589,60.4603272 0.11764155,46.952713 0.11764155,30.2900653 C0.11764155,13.6274176 13.6254589,0.119803416 30.2881066,0.119803416 C46.9505512,0.119803416 60.4583685,13.6274176 60.4583685,30.2900653 C60.4583685,46.952713 46.9505512,60.4603272 30.2881066,60.4603272 Z" id="path-9"></path>
    </defs>
    <g id="Icon-(color)" stroke="none" stroke-width="1" fill="none" fill-rule="evenodd">
        <g id="globe-eats-the-k8s" transform="translate(11.000000, 0.000000)">
            <g id="Group-8" transform="translate(0.000000, 22.181222)">
                <mask id="mask-2" fill="white">
                    <use xlink:href="#path-1"></use>
                </mask>
                <g id="Oval-12" fill-rule="nonzero"></g>
                <path d="M37.6394659,72.6097984 L65.5688645,198.114227 L184.112282,256.671541 L302.662591,198.114227 L330.412301,73.3879002 C353.481056,104.059509 367.153298,142.20017 367.153298,183.534154 C367.153298,284.835131 285.032631,366.955799 183.731653,366.955799 C82.430676,366.955799 0.310008348,284.835131 0.310008348,183.534154 C0.310008348,141.849915 14.2149431,103.413348 37.6394659,72.6097984 Z" id="Combined-Shape" fill="url(#linearGradient-3)" fill-rule="nonzero" mask="url(#mask-2)"></path>
                <g id="lines" opacity="0.100000001" mask="url(#mask-2)" fill-rule="nonzero" stroke="#FFFFFF" stroke-width="4">
                    <g transform="translate(-130.381085, -28.136336)">
                        <path d="M151.853137,32.7857111 L280.781435,638.370819" id="Path-7"></path>
                        <path d="M478.825934,35.5074419 L341.92269,638.370819" id="Path-8"></path>
                        <path d="M594.462655,428.797545 L24.5655179,142.888228" id="Path-9"></path>
                        <path d="M604.07828,433.549943 L23.662106,142.888228" id="Path-9" transform="translate(313.870193, 288.219085) scale(-1, 1) translate(-313.870193, -288.219085) "></path>
                        <path d="M244.816296,0.215311212 L0.116284797,301.662947" id="Path-10"></path>
                        <path d="M393.313327,8.55061185 L606.149897,289.856377" id="Path-11"></path>
                    </g>
                </g>
                <g id="orange" mask="url(#mask-2)">
                    <g transform="translate(216.877037, 30.591415)">
                        <mask id="mask-5" fill="white">
                            <use xlink:href="#path-4"></use>
                        </mask>
                        <g id="Clip-135" stroke="none" fill="none"></g>
                        <polygon id="Fill-134" stroke="none" fill="#FD863A" fill-rule="evenodd" mask="url(#mask-5)" points="-0.413296783 -0.399029891 48.019787 -0.399029891 48.019787 48.0340539 -0.413296783 48.0340539"></polygon>
                    </g>
                </g>
                <polygon id="Path-2" fill="url(#linearGradient-6)" fill-rule="nonzero" mask="url(#mask-2)" points="184 32.8611334 302.654406 91.4158771 314.848602 146.098126 303.124697 197.862271 183.784651 257.766388 64.7329102 198.023415 53.6892262 144.799268 65.6003761 91.4158771"></polygon>
                <g id="Group" mask="url(#mask-2)">
                    <g transform="translate(53.000000, 32.000000)"></g>
                </g>
            </g>
            <g id="bubbles" transform="translate(92.137384, 0.000000)">
                <g id="interior-core" transform="translate(37.472347, 0.124508)">
                    <mask id="mask-8" fill="white">
                        <use xlink:href="#path-7"></use>
                    </mask>
                    <g id="Clip-138"></g>
                    <polygon id="Fill-137" fill="#1FF6EF" mask="url(#mask-8)" points="-0.803493589 -0.900777566 33.1255545 -0.900777566 33.1255545 33.0284507 -0.803493589 33.0284507"></polygon>
                </g>
                <g id="bubble" transform="translate(0.000000, 68.888091)">
                    <mask id="mask-10" fill="white">
                        <use xlink:href="#path-9"></use>
                    </mask>
                    <g id="Clip-141"></g>
                    <polygon id="Fill-140" fill="#43CAF8" mask="url(#mask-10)" points="-0.783136016 -0.78097415 73.674996 -0.78097415 73.674996 73.6769154 -0.783136016 73.6769154"></polygon>
                </g>
            </g>
        </g>
    </g>
</svg>

<svg xmlns="http://www.w3.org/2000/svg" role="img" xmlns:xlink="http://www.w3.org/1999/xlink" viewBox="3.47 -7.78 382.31 404.56"><defs><path id="d" d="M23.8032 47.59098c-13.1297 0-23.77343-10.64372-23.77343-23.77342C.02977 10.68776 10.6735.04404 23.8032.04404c13.1297 0 23.77352 10.64372 23.77352 23.77352 0 13.1297-10.64381 23.77342-23.77352 23.77342z"/><path id="g" d="M16.16103 32.12767c-8.87176 0-16.06375-7.19199-16.06375-16.06392C.09728 7.19199 7.28928 0 16.16103 0c8.87176 0 16.06375 7.19199 16.06375 16.06375 0 8.87193-7.192 16.06392-16.06375 16.06392z"/><path id="i" d="M30.2881 60.46033C13.62547 60.46033.11765 46.9527.11765 30.29007.11764 13.62742 13.62546.1198 30.28811.1198c16.66244 0 30.17026 13.50762 30.17026 30.17027 0 16.66264-13.50782 30.17026-30.17026 30.17026z"/><linearGradient id="b" x1="50%" x2="50%" y1="0%" y2="100%"><stop offset="0%" stop-color="#BF87ED"/><stop offset="100%" stop-color="#8B4FD7"/></linearGradient><linearGradient id="f" x1="48.99%" x2="48.99%" y1="75.69%" y2="36.752%"><stop offset="0%" stop-color="#1A59C8"/><stop offset="100%" stop-color="#2A69D9"/></linearGradient><circle id="a" cx="183.732" cy="183.534" r="183.422"/></defs><g transform="translate(11)" fill="none" fill-rule="evenodd" stroke="none" stroke-width="1"><g transform="translate(0 22.181)"><mask id="c" fill="#fff"><use xlink:href="#a"/></mask><path fill="url(#b)" fill-rule="nonzero" d="M37.63947 72.6098l27.9294 125.50443 118.54341 58.55731 118.55031-58.55731L330.4123 73.3879c23.06876 30.6716 36.741 68.81227 36.741 110.14625 0 101.30098-82.12067 183.42165-183.42165 183.42165C82.43068 366.9558.31001 284.83513.31001 183.53415c0-41.68424 13.90493-80.1208 37.32946-110.92435z" mask="url(#c)"/><g fill-rule="nonzero" stroke="#FFF" stroke-width="4" mask="url(#c)" opacity=".1"><g transform="translate(-130.381 -28.136)"><path d="M151.85314 32.78571l128.9283 605.5851"/><path d="M478.82593 35.50744L341.9227 638.37082"/><path d="M594.46266 428.79755L24.56552 142.88823"/><path d="M23.66172 433.54994l580.41617-290.66171"/><path d="M244.8163.21531L.11628 301.66295"/><path d="M393.31333 8.55061L606.1499 289.85638"/></g></g><g mask="url(#c)"><g transform="translate(216.877 30.591)"><mask id="e" fill="#fff"><use xlink:href="#d"/></mask><path fill="#FD863A" fill-rule="evenodd" stroke="none" d="M-.413-.399H48.02v48.433H-.413z" mask="url(#e)"/></g></g><path fill="url(#f)" fill-rule="nonzero" d="M184 32.861l118.654 58.555 12.195 54.682-11.724 51.764-119.34 59.904-119.052-59.743-11.044-53.224L65.6 91.416z" mask="url(#c)"/></g><g transform="translate(92.137)"><g transform="translate(37.472 .125)"><mask id="h" fill="#fff"><use xlink:href="#g"/></mask><path fill="#1FF6EF" d="M-.803-.901h33.929v33.929H-.803z" mask="url(#h)"/></g><g transform="translate(0 68.888)"><mask id="j" fill="#fff"><use xlink:href="#i"/></mask><path fill="#43CAF8" d="M-.783-.781h74.458v74.458H-.783z" mask="url(#j)"/></g></g></g></svg>
